img/docicons/other.svg

<svg width="48" height="48" viewBox="0 0 48 48" fill="none" xmlns="http://www.w3.org/2000/svg"><path d="M36.172 34.734c-.256 0-.512-.098-.708-.292L31.222 30.2a1 1 0 00-1.414 1.414 1 1 0 01-1.414 1.414 3.002 3.002 0 010-4.242 3.006 3.006 0 014.242 0l4.244 4.242a1 1 0 01-.708 1.706z" fill="#F7A707"/><path d="M33.342 31.906c-.256 0-.512-.098-.708-.292a3.01 3.01 0 010-4.242c1.134-1.132 3.11-1.132 4.244 0l2.828 2.828a1 1 0 01-1.414 1.414l-2.828-2.828a1.003 1.003 0 00-1.416 0 1.004 1.004 0 000 1.414c.388.39.39 1.024 0 1.414a.996.996 0 01-.706.292z" fill="#F7A707"/><path d="M36.544 47.996c-.736 0-1.476-.09-2.204-.276l-6.974-1.778a.99.99 0 01-.616-.464c-.476-.816-.968-2.77.584-4.318.688-.688 1.614-.956 2.518-1.018l-8.53-8.53a3.002 3.002 0 010-4.242c1.134-1.132 3.112-1.132 4.244 0l8.484 8.484a1 1 0 01-1.414 1.414l-8.486-8.484c-.376-.376-1.034-.376-1.414 0a1 1 0 000 1.414l10.606 10.608a.999.999 0 01.144 1.23c-.242.394-.72.566-1.166.426-.852-.278-2.842-.62-3.574.112a1.52 1.52 0 00-.41 1.552l6.496 1.656a7.027 7.027 0 006.678-1.834l2.438-2.436a7.01 7.01 0 000-9.9l-4.244-4.242a1.023 1.023 0 00-1.414 0 .993.993 0 00-.002 1.414 1 1 0 01-1.414 1.414 2.983 2.983 0 01-.88-2.124c0-.8.314-1.554.882-2.12 1.13-1.136 3.108-1.136 4.242 0l4.242 4.242c3.508 3.51 3.508 9.218 0 12.728l-2.438 2.436a9.017 9.017 0 01-6.378 2.636zM21 42H5c-2.756 0-5-2.242-5-5V11c0-2.758 2.244-5 5-5h4a1 1 0 010 2H5c-1.654 0-3 1.346-3 3v26c0 1.654 1.346 3 3 3h16a1 1 0 010 2z" fill="#F7A707"/><path d="M23 12H11c-1.654 0-3-1.346-3-3V5a1 1 0 011-1h3.1c.466-2.28 2.484-4 4.9-4a5.009 5.009 0 014.9 4H25a1 1 0 011 1v4c0 1.654-1.346 3-3 3zM10 6v3c0 .55.448 1 1 1h12c.552 0 1-.45 1-1V6h-3a1 1 0 01-1-1c0-1.654-1.346-3-3-3s-3 1.346-3 3a1 1 0 01-1 1h-3z" fill="#F7A707"/><path d="M33 24a1 1 0 01-1-1V11c0-1.654-1.346-3-3-3h-4a1 1 0 010-2h4c2.756 0 5 2.242 5 5v12a1 1 0 01-1 1zm-6-6H7a1 1 0 010-2h20a1 1 0 010 2zm0 6H7a1 1 0 010-2h20a1 1 0 010 2zm-10 6H7a1 1 0 010-2h10a1 1 0 010 2z" fill="#F7A707"/></svg>

<svg width="48" height="48" viewBox="0 0 48 48" fill="none" xmlns="http://www.w3.org/2000/svg">
<path d="M36.172 34.734C35.916 34.734 35.66 34.636 35.464 34.442L31.222 30.2C30.832 29.81 30.198 29.81 29.808 30.2C29.418 30.59 29.418 31.224 29.808 31.614C30.198 32.004 30.198 32.638 29.808 33.028C29.418 33.418 28.784 33.418 28.394 33.028C27.224 31.858 27.224 29.956 28.394 28.786C29.564 27.618 31.466 27.618 32.636 28.786L36.88 33.028C37.27 33.418 37.27 34.052 36.88 34.442C36.684 34.636 36.428 34.734 36.172 34.734Z" fill="#F7A707"/>
<path d="M33.342 31.906C33.086 31.906 32.83 31.808 32.634 31.614C31.468 30.444 31.468 28.542 32.634 27.372C33.768 26.24 35.744 26.24 36.878 27.372L39.706 30.2C40.096 30.59 40.096 31.224 39.706 31.614C39.316 32.004 38.682 32.004 38.292 31.614L35.464 28.786C35.072 28.394 34.438 28.398 34.048 28.786C33.66 29.176 33.66 29.81 34.048 30.2C34.436 30.59 34.438 31.224 34.048 31.614C33.854 31.808 33.598 31.906 33.342 31.906Z" fill="#F7A707"/>
<path d="M36.544 47.996C35.808 47.996 35.068 47.906 34.34 47.72L27.366 45.942C27.106 45.876 26.884 45.71 26.75 45.478C26.274 44.662 25.782 42.708 27.334 41.16C28.022 40.472 28.948 40.204 29.852 40.142L21.322 31.612C20.152 30.442 20.152 28.54 21.322 27.37C22.456 26.238 24.434 26.238 25.566 27.37L34.05 35.854C34.44 36.244 34.44 36.878 34.05 37.268C33.66 37.658 33.026 37.658 32.636 37.268L24.15 28.784C23.774 28.408 23.116 28.408 22.736 28.784C22.346 29.174 22.346 29.808 22.736 30.198L33.342 40.806C33.67 41.134 33.728 41.642 33.486 42.036C33.244 42.43 32.766 42.602 32.32 42.462C31.468 42.184 29.478 41.842 28.746 42.574C28.186 43.134 28.23 43.754 28.336 44.126L34.832 45.782C37.208 46.392 39.772 45.686 41.51 43.948L43.948 41.512C46.676 38.782 46.676 34.342 43.948 31.612L39.704 27.37C39.326 26.992 38.668 26.992 38.29 27.37C38.098 27.56 37.996 27.81 37.994 28.076C37.994 28.344 38.098 28.596 38.288 28.784C38.678 29.174 38.678 29.808 38.288 30.198C37.898 30.588 37.264 30.588 36.874 30.198C36.306 29.63 35.994 28.876 35.994 28.074C35.994 27.274 36.308 26.52 36.876 25.954C38.006 24.818 39.984 24.818 41.118 25.954L45.36 30.196C48.868 33.706 48.868 39.414 45.36 42.924L42.922 45.36C41.224 47.066 38.906 47.996 36.544 47.996Z" fill="#F7A707"/>
<path d="M21 42H5C2.244 42 0 39.758 0 37V11C0 8.242 2.244 6 5 6H9C9.552 6 10 6.448 10 7C10 7.552 9.552 8 9 8H5C3.346 8 2 9.346 2 11V37C2 38.654 3.346 40 5 40H21C21.552 40 22 40.448 22 41C22 41.552 21.552 42 21 42Z" fill="#F7A707"/>
<path d="M22.9999 12H10.9999C9.34594 12 7.99994 10.654 7.99994 9V5C7.99994 4.448 8.44794 4 8.99994 4H12.0999C12.5659 1.72 14.5839 0 16.9999 0C19.4159 0 21.4339 1.72 21.8999 4H24.9999C25.5519 4 25.9999 4.448 25.9999 5V9C25.9999 10.654 24.6539 12 22.9999 12ZM9.99994 6V9C9.99994 9.55 10.4479 10 10.9999 10H22.9999C23.5519 10 23.9999 9.55 23.9999 9V6H20.9999C20.4479 6 19.9999 5.552 19.9999 5C19.9999 3.346 18.6539 2 16.9999 2C15.3459 2 13.9999 3.346 13.9999 5C13.9999 5.552 13.5519 6 12.9999 6H9.99994Z" fill="#F7A707"/>
<path d="M33 24C32.448 24 32 23.552 32 23V11C32 9.346 30.654 8 29 8H25C24.448 8 24 7.552 24 7C24 6.448 24.448 6 25 6H29C31.756 6 34 8.242 34 11V23C34 23.552 33.552 24 33 24Z" fill="#F7A707"/>
<path d="M27 18H7C6.448 18 6 17.552 6 17C6 16.448 6.448 16 7 16H27C27.552 16 28 16.448 28 17C28 17.552 27.552 18 27 18Z" fill="#F7A707"/>
<path d="M27 24H7C6.448 24 6 23.552 6 23C6 22.448 6.448 22 7 22H27C27.552 22 28 22.448 28 23C28 23.552 27.552 24 27 24Z" fill="#F7A707"/>
<path d="M17 30H7C6.448 30 6 29.552 6 29C6 28.448 6.448 28 7 28H17C17.552 28 18 28.448 18 29C18 29.552 17.552 30 17 30Z" fill="#F7A707"/>
</svg>
